!!!COM: Aaron Copland
!!!OTL: [T703_Cop-w3p8m4-1h6m1]
**kern	**dynam	**kern	**dynam	**kern	**dynam	**kern	**dynam	**kern	**dynam	**kern	**kern	**dynam	**kern	**dynam	**kern	**dynam	**kern	**dynam	**kern	**dynam	**kern	**dynam	**kern	**dynam
*grp:A	*grp:A	*grp:A	*grp:A	*grp:A	*grp:A	*grp:A	*grp:A	*grp:A	*grp:A	*grp:A	*grp:A	*grp:A	*grp:A	*grp:A	*grp:A	*grp:A	*grp:A	*grp:A	*grp:A	*grp:A	*grp:B	*grp:B	*grp:B	*grp:B
*part12	*part12	*part11	*part11	*part10	*part10	*part9	*part9	*part8	*part8	*part7	*part7	*part7	*part6	*part6	*part5	*part5	*part4	*part4	*part3	*part3	*part2	*part2	*part1	*part1
*staff13	*staff13	*staff12	*staff12	*staff11	*staff11	*staff10	*staff10	*staff9	*staff9	*staff8	*staff7	*staff7	*staff6	*staff6	*staff5	*staff5	*staff4	*staff4	*staff3	*staff3	*staff2	*staff2	*staff1	*staff1
*I"Contrabass	*I"Contrabass	*I"Violoncello	*I"Violoncello	*I"Viola	*I"Viola	*I"Violin II	*I"Violin II	*I"Violin I	*I"Violin I	*I"Piano	*I"Piano	*I"Piano	*I"Bass Drum	*I"Bass Drum	*I"Snare Drum	*I"Snare Drum	*I"Trumpet I in C	*I"Trumpet I in C	*I"Bassoon	*I"Bassoon	*I"Clarinet in Eb	*I"Clarinet in Eb	*I"Piccolo	*I"Piccolo
*I'Cb.	*	*I'Vc.	*	*I'Vla.	*	*I'Vln. II	*	*I'Vln. I	*	*I'Pno.	*	*	*I'Perc.	*	*I'Perc.	*	*I'C Tpt.	*	*I'Bsn.	*	*I'Eb Cl.	*	*I'Picc.	*
*	*	*	*	*	*	*	*	*	*	*	*	*	*stria1	*	*stria1	*	*	*	*	*	*	*	*	*
*clefF4	*	*clefF4	*	*clefC3	*	*clefG2	*	*clefG2	*	*clefF4	*clefG2	*	*clefX	*	*clefX	*	*clefG2	*	*clefF4	*	*clefG2	*	*clefG2	*
*ITrd7c12	*	*	*	*	*	*	*	*	*	*	*	*	*	*	*	*	*	*	*	*	*ITrd-2c-3	*	*ITrd-7c-12	*
*k[]	*	*k[]	*	*k[]	*	*k[]	*	*k[]	*	*k[]	*k[]	*	*k[]	*	*k[]	*	*k[]	*	*k[]	*	*k[b-e-a-]	*	*k[]	*
*	*	*	*	*	*	*	*	*	*	*	*	*	*C:	*	*C:	*	*	*	*	*	*	*	*	*
*M3/4	*	*M3/4	*	*M3/4	*	*M3/4	*	*M3/4	*	*M3/4	*M3/4	*	*M3/4	*	*M3/4	*	*M3/4	*	*M3/4	*	*M3/4	*	*M3/4	*
=1	=1	=1	=1	=1	=1	=1	=1	=1	=1	=1	=1	=1	=1	=1	=1	=1	=1	=1	=1	=1	=1	=1	=1	=1
.	.	.	.	.	.	.	.	.	.	.	.	.	.	.	16qqRe/LL	.	.	.	.	.	.	.	.	.
.	.	.	.	.	.	.	.	.	.	.	.	.	.	.	16qqRe/	.	.	.	.	.	.	.	.	.
!LO:TX:b:t=[(accents very strongly marked)]	!	!	!	!	!	!	!	!LO:TX:a:t=pizz.	!	!	!	!	!	!	!	!	!	!	!	!	!	!	!	!
!LO:TX:a:t=pizz.	!	!LO:TX:a:t=pizz.	!	!LO:TX:a:t=pizz.	!	!LO:TX:a:t=pizz.	!	!LO:TX:a:t=[VL 1, VL 2, Violas very strong accent on second beat throughout]	!	!	!	!	!	!	!	!LO:DY:ed=brack	!	!	!	!LO:DY:ed=brack	!	!LO:DY:ed=brack	!	!
.	.	.	.	.	.	.	.	.	.	.	.	.	.	.	16qqRe/JJ	.	.	.	.	.	.	.	.	.
!	!LO:DY:ed=brack	!	!LO:DY:ed=brack	!	!LO:DY:ed=brack	!	!LO:DY:ed=brack	!	!LO:DY:ed=brack	!	!	!LO:DY:ed=brack	!	!	!	!LO:DY:ed=brack	!	!	!	!	!	!	!	!
8AAA^L	f	8AA^L 8E	f	8A^	f	8d^	f	8f#X^	f	8AA^L 8E	8A^ 8d 8f#X	ff	4%3r	.	8Re^\L	f	4%3r	.	8AA^L	f	8eeXL	ff	8r	.
!	!	!	!	!	!	!	!	!	!	!	!	!	!	!	!	!	!	!	!	!	!	!	!	!LO:DY:ed=brack
8DD'J	.	8D'J	.	8r	.	8r	.	8r	.	8D'J	8r	.	.	.	8Re'\J	.	.	.	8D'J	.	8bX'J	.	8bb'	f
4r	.	8r	.	8B^L	.	8e^L	.	8g#X^L	.	8r	8B^L 8e 8g#X	.	.	.	8r	.	.	.	4r	.	8ee^	.	8eee^L	.
.	.	8AA' 8E	.	8A'J	.	8d'J	.	8f#'J	.	8AA' 8E	8A'J 8d 8f#	.	.	.	8Re'\	.	.	.	.	.	4ee~	.	8eee'J	.
8DD^	.	8D^	.	8r	.	8r	.	8r	.	8D^	8r	.	.	.	8Re^\	.	.	.	8D^	.	.	.	8r	.
8r	.	8r	.	8B'	.	8e'	.	8g#'	.	8r	8B' 8e 8g#	.	.	.	8r	.	.	.	8r	.	8b'	.	8bb'	.
=2	=2	=2	=2	=2	=2	=2	=2	=2	=2	=2	=2	=2	=2	=2	=2	=2	=2	=2	=2	=2	=2	=2	=2	=2
.	.	.	.	.	.	.	.	.	.	.	.	.	.	.	16qqRe/LL	.	.	.	.	.	.	.	.	.
.	.	.	.	.	.	.	.	.	.	.	.	.	.	.	16qqRe/	.	.	.	.	.	.	.	.	.
.	.	.	.	.	.	.	.	.	.	.	.	.	.	.	16qqRe/JJ	.	.	.	.	.	.	.	.	.
8AAA^L	.	8AA^L 8E	.	8A^	.	8d^	.	8f#X^	.	8AA^L 8E	8A^ 8d 8f#X	.	4%3r	.	8Re^\L	.	4%3r	.	8AA^L	.	8eeX^L	.	8eee^L	.
8DD'J	.	8D'J	.	8r	.	8r	.	8r	.	8D'J	8r	.	.	.	8Re'\J	.	.	.	8D'J	.	8bX'J	.	8bb'J	.
4r	.	8r	.	8B^L	.	8e^L	.	8g#X^L	.	8r	8B^L 8e 8g#X	.	.	.	8r	.	.	.	4r	.	8ee'	.	8eee'	.
.	.	8AA^ 8E	.	8A'J	.	8d'J	.	8f#'J	.	8AA' 8E	8A'J 8d 8f#	.	.	.	8Re'\	.	.	.	.	.	4ee^	.	4eee^	.
8DD^	.	8D'	.	8r	.	8r	.	8r	.	8D^	8r	.	.	.	8Re^\	.	.	.	8D^	.	.	.	.	.
8r	.	8r	.	8B'	.	8e'	.	8g#'	.	8r	8B' 8e 8g#	.	.	.	8r	.	.	.	8r	.	[8ee^	.	[8eee^	.
=3	=3	=3	=3	=3	=3	=3	=3	=3	=3	=3	=3	=3	=3	=3	=3	=3	=3	=3	=3	=3	=3	=3	=3	=3
.	.	.	.	.	.	.	.	.	.	.	.	.	.	.	16qqRe/LL	.	.	.	.	.	.	.	.	.
.	.	.	.	.	.	.	.	.	.	.	.	.	.	.	16qqRe/	.	.	.	.	.	.	.	.	.
.	.	.	.	.	.	.	.	.	.	.	.	.	.	.	16qqRe/JJ	.	.	.	.	.	.	.	.	.
8AAA^L	.	8AA^L 8E	.	8A^	.	8d^	.	8f#X^	.	8AA^L 8E	8A^ 8d 8f#X	.	4%3r	.	8Re^\L	.	4%3r	.	8AA^L	.	4ee_	.	4eee_	.
8DD'J	.	8D'J	.	8r	.	8r	.	8r	.	8D'J	8r	.	.	.	8Re'\J	.	.	.	8D'J	.	.	.	.	.
4r	.	8r	.	8B^L	.	8e^L	.	8g#X^L	.	8r	8B^L 8e 8g#X	.	.	.	8r	.	.	.	4r	.	8eeL]	.	8eeeL]	.
.	.	8AA^ 8E	.	8A'J	.	8d'J	.	8f#'J	.	8AA' 8E	8A'J 8d 8f#	.	.	.	8Re'\	.	.	.	.	.	8aX'J	.	8aa'J	.
8DD^	.	8D'	.	8r	.	8r	.	8r	.	8D^	8r	.	.	.	8Re^\	.	.	.	8D^	.	[4ff#X~	.	[4fff#X~	.
8r	.	8r	.	8B'	.	8e'	.	8g#'	.	8r	8B' 8e 8g#	.	.	.	8r	.	.	.	8r	.	.	.	.	.
=4	=4	=4	=4	=4	=4	=4	=4	=4	=4	=4	=4	=4	=4	=4	=4	=4	=4	=4	=4	=4	=4	=4	=4	=4
.	.	.	.	.	.	.	.	.	.	.	.	.	.	.	16qqRe/LL	.	.	.	.	.	.	.	.	.
.	.	.	.	.	.	.	.	.	.	.	.	.	.	.	16qqRe/	.	.	.	.	.	.	.	.	.
.	.	.	.	.	.	.	.	.	.	.	.	.	.	.	16qqRe/JJ	.	.	.	.	.	.	.	.	.
8AAA^L	.	8AA^L 8E	.	8A^	.	8d^	.	8f#X^	.	8AA^L 8E	8A^ 8d 8f#X	.	4%3r	.	8Re^\L	.	4%3r	.	8AA^L	.	4ff#]	.	4fff#]	.
8DD'J	.	8D'J	.	8r	.	8r	.	8r	.	8D'J	8r	.	.	.	8Re'\J	.	.	.	8D'J	.	.	.	.	.
4r	.	8r	.	8B^L	.	8e^L	.	8g#X^L	.	8r	8B^L 8e 8g#X	.	.	.	8r	.	.	.	4r	.	2eeX~	.	2eee~	.
.	.	8AA^ 8E	.	8A'J	.	8d'J	.	8f#'J	.	8AA' 8E	8A'J 8d 8f#	.	.	.	8Re'\	.	.	.	.	.	.	.	.	.
8DD^	.	8D'	.	8r	.	8r	.	8r	.	8D^	8r	.	.	.	8Re^\	.	.	.	8D^	.	.	.	.	.
8r	.	8r	.	8B'	.	8e'	.	8g#'	.	8r	8B' 8e 8g#	.	.	.	8r	.	.	.	8r	.	.	.	.	.
!!LO:REH:t=6
=5	=5	=5	=5	=5	=5	=5	=5	=5	=5	=5	=5	=5	=5	=5	=5	=5	=5	=5	=5	=5	=5	=5	=5	=5
*M7/8	*	*M7/8	*	*M7/8	*	*M7/8	*	*M7/8	*	*M7/8	*M7/8	*	*M7/8	*	*M7/8	*	*M7/8	*	*M7/8	*	*M7/8	*	*M7/8	*
!LO:TX:a:t=pizz.	!	!LO:TX:a:t=arco	!	!	!	!	!	!	!	!	!	!	!	!	!	!	!LO:TX:a:rj:i:t=(Jazz)	!	!	!	!	!	!LO:TX:a:t=sempre [eighth] = [eighth]	!
!	!	!	!	!	!	!	!	!	!	!	!	!	!	!	!	!	!LO:TX:a:rj:i:t=con sord.	!	!	!	!	!	!	!
!	!	!	!	!	!	!	!	!	!	!	!	!	!	!	!	!	!LO:TX:a:rj:i:t=Solo 	!	!	!	!	!	!	!
8DD^	.	8DD^L	.	8r	.	8r	.	8r	.	8DD^L	8r	ff	8Re^\	f	8%7r	.	8ff#X^L	f	8DD^	sf	[4dd~	.	[4ddd~	.
8r'	.	8AA'J 8E	.	8r	.	8r	.	8r	.	8AA'J 8E	8r	.	8r	.	.	.	8gg'J	.	8r	.	.	.	.	.
!	!	!	!	!LO:TX:a:t=arco	!	!LO:TX:a:t=arco	!	!LO:TX:a:t=arco	!	!	!	!	!	!	!	!	!	!	!	!	!	!	!	!
=	=.	=.	=.	=.	=.	=.	=.	=.	=.	=.	=.	=.	=.	=.	=.	=.	=.	=.	=.	=.	=.	=.	=.	=.
8r	.	8r	.	8A^ 8f#X	.	8A^ 8f#X	.	8d^ 8a	.	8r	8A^ 8d 8f#X 8a	.	8r	.	.	.	8aa^L	.	8r	.	4dd]	.	4ddd]	.
8DD^	.	8DD^L	.	8r	.	8r	.	8r	.	8DD^L	8r	.	8Re^\	.	.	.	8dd'	.	8DD^	sf	.	.	.	.
8r'	.	8BB'J 8F#X	.	8r	.	8r	.	8r	.	8BB'J 8F#X	8r	.	8r	.	.	.	8dd'J	.	8r	.	8r	.	8r	.
=	=.	=.	=.	=.	=.	=.	=.	=.	=.	=.	=.	=.	=.	=.	=.	=.	=.	=.	=.	=.	=.	=.	=.	=.
8r	.	8r	.	8B^ 8g#X	.	8B^ 8g#X	.	8e^ 8b	.	8r	8B^ 8e 8g#X 8b	.	8r	.	.	.	8ff#^L	.	8r	.	4r	.	4r	.
8DD^	.	8DD^	.	8r	.	8r	.	8r	.	8DD^	8r	.	8Re^\	.	.	.	8gg'J	.	8DD^	sf	.	.	.	.
=	=	=	=	=	=	=	=	=	=	=	=	=	=	=	=	=	=	=	=	=	=	=	=	=
*-	*-	*-	*-	*-	*-	*-	*-	*-	*-	*-	*-	*-	*-	*-	*-	*-	*-	*-	*-	*-	*-	*-	*-	*-
!!!system-decoration: [(s1,s2,s3)][(s4)][(s5,s6)][({(s7,s8)})][(s9,s10,s11,s12,s13)]
